X:1
T:Title
%%score { ( 1 3 ) | ( 2 4 ) }
L:1/8
Q:1/4=100
M:4/4
K:E
V:1 treble nm="Grand Piano"
V:3 treble 
V:2 bass 
V:4 bass 
V:1
 G3 A cBGE | [B,EG]4 [DF]4 | [G,CE]3 [B,DF] GcBG | [DF]6 z2 | G3 A cBGE | e4 [EAc]4 | %6
w: W.~H.~Doane * * * * *||||||
 [EGB]3 [B,EG] [A,DF]EFG | E6 GE | c2 B4 GE | e2 c4 Ac | [GB]3 G F2 E2 | [DF]6 GE | c2 B4 GE | %13
w: |||||||
 e2 [EAc]4 z2 | [EGB]3 [B,EG] [A,DF]EFG | E6 z2 |] %16
w: |||
V:2
 [E,B,E]3 [E,CE] [E,A,E][E,G,E][B,E]E, | B,,4 z2 A,2 | C,3 B,, [E,B,E][E,A,E][E,G,E][E,B,E] | %3
 [B,,B,]6 z2 | [E,B,E]3 [E,CE] [E,A,E][E,G,E][E,B,E][G,B,] | [A,CE]4 A,,4 | %6
 B,,3 B,, B,,[B,,G,][B,,A,B,][B,,B,] | [E,G,B,]6 [E,B,E][E,G,] | [E,A,E]2 [E,G,E]4 [E,B,E][E,G,] | %9
 [A,CE]2 [A,EA]4 [A,CE][A,EA] | [E,E]3 [E,B,E] [E,A,D]2 [E,G,]2 | [B,,B,]6 [E,B,E][E,G,] | %12
 [E,A,E]2 [E,G,E]4 [E,B,E][G,B,] | [A,CE]2 A,,4 z2 | B,,3 B,, B,,[B,,G,][B,,A,B,][B,,B,] | %15
 [E,G,B,]6 z2 |] %16
V:3
 x8 | z4 B,2 z2 | x8 | x8 | x8 | x8 | x8 | x8 | x8 | x8 | x8 | x8 | x8 | x8 | x8 | x8 |] %16
V:4
 x8 | z4 B,,4 | x8 | x8 | x8 | x8 | x8 | x8 | x8 | x8 | x8 | x8 | x8 | x8 | x8 | x8 |] %16

